X: 16824
T: Hartmann's Fancy
R: hornpipe
M: 4/4
K: Gmajor
ge|"G"dBGB "D"cAFA|"G"GABG D2Bc|"G"dgdB "C"cecA|"D"FGAF ""D2"C"ge|
"G"dBGB "D"cAFA|"G"GABG D2GA|"G"(3Bcd gd "C"ecAF|"G"GD"D"BA "G"G2:|
|:AG|"D"FDFA dedA|"G"GDGB dedB|"A"A^cec "A7"abag|"D"fa"A"e^c "D"d2"C"ge|
"G"dBGB "D"cAFA|"G"GABG D2GA|"G"(3Bcd gd "C"ecAF|"G"GD"D"BA "G"G2"":|

